doc/thesis/fig/acceldecel.svg

<?xml version="1.0" encoding="UTF-8" standalone="no"?>
<!-- Created with Inkscape (http://www.inkscape.org/) -->

<svg
   xmlns:dc="http://purl.org/dc/elements/1.1/"
   xmlns:cc="http://creativecommons.org/ns#"
   xmlns:rdf="http://www.w3.org/1999/02/22-rdf-syntax-ns#"
   xmlns:svg="http://www.w3.org/2000/svg"
   xmlns="http://www.w3.org/2000/svg"
   xmlns:sodipodi="http://sodipodi.sourceforge.net/DTD/sodipodi-0.dtd"
   xmlns:inkscape="http://www.inkscape.org/namespaces/inkscape"
   sodipodi:docname="acceldecel.svg"
   inkscape:version="0.48.4 r9939"
   version="1.1"
   id="svg2"
   height="195.08243"
   width="455.35742">
  <sodipodi:namedview
     id="base"
     pagecolor="#ffffff"
     bordercolor="#666666"
     borderopacity="1.0"
     inkscape:pageopacity="0.0"
     inkscape:pageshadow="2"
     inkscape:zoom="3.959798"
     inkscape:cx="203.42173"
     inkscape:cy="121.46511"
     inkscape:document-units="px"
     inkscape:current-layer="layer1"
     showgrid="true"
     fit-margin-left="2"
     fit-margin-top="2"
     fit-margin-right="2"
     fit-margin-bottom="2"
     inkscape:window-width="1436"
     inkscape:window-height="861"
     inkscape:window-x="0"
     inkscape:window-y="18"
     inkscape:window-maximized="0">
    <inkscape:grid
       type="xygrid"
       id="grid2985"
       empspacing="5"
       visible="true"
       enabled="true"
       snapvisiblegridlinesonly="true"
       originx="-162.64844px"
       originy="-668.83007px" />
  </sodipodi:namedview>
  <defs
     id="defs4">
    <marker
       inkscape:stockid="Arrow1Mend"
       orient="auto"
       refY="0"
       refX="0"
       id="Arrow1Mend"
       style="overflow:visible">
      <path
         id="path3791"
         d="M 0,0 5,-5 -12.5,0 5,5 0,0 z"
         style="fill-rule:evenodd;stroke:#000000;stroke-width:1pt"
         transform="matrix(-0.4,0,0,-0.4,-4,0)"
         inkscape:connector-curvature="0" />
    </marker>
    <marker
       inkscape:stockid="Arrow1Lend"
       orient="auto"
       refY="0"
       refX="0"
       id="Arrow1Lend"
       style="overflow:visible">
      <path
         id="path3785"
         d="M 0,0 5,-5 -12.5,0 5,5 0,0 z"
         style="fill-rule:evenodd;stroke:#000000;stroke-width:1pt"
         transform="matrix(-0.8,0,0,-0.8,-10,0)"
         inkscape:connector-curvature="0" />
    </marker>
  </defs>
  <metadata
     id="metadata7">
    <rdf:RDF>
      <cc:Work
         rdf:about="">
        <dc:format>image/svg+xml</dc:format>
        <dc:type
           rdf:resource="http://purl.org/dc/dcmitype/StillImage" />
        <dc:title />
      </cc:Work>
    </rdf:RDF>
  </metadata>
  <g
     inkscape:label="Layer 1"
     inkscape:groupmode="layer"
     id="layer1"
     transform="translate(-162.64844,-188.44968)">
    <path
       style="fill:none;stroke:#000000;stroke-width:1.39040911;stroke-linecap:square;stroke-linejoin:round;stroke-miterlimit:4;stroke-opacity:1;stroke-dasharray:none"
       d="m 330,342.36218 c -0.0444,22.10241 60,0 60,20 0,-20 59.95565,2.37201 60,-19.73039"
       id="path3831-6-1"
       inkscape:connector-curvature="0"
       sodipodi:nodetypes="ccc" />
    <text
       xml:space="preserve"
       style="font-size:6px;font-style:normal;font-weight:normal;text-align:center;line-height:125%;letter-spacing:0px;word-spacing:0px;text-anchor:middle;fill:#000000;fill-opacity:1;stroke:none;font-family:Sans"
       x="270"
       y="377.36218"
       id="text3791"
       sodipodi:linespacing="125%"><tspan
         sodipodi:role="line"
         id="tspan3793"
         x="270"
         y="377.36218"
         style="font-size:12px">Phase 1</tspan></text>
    <text
       xml:space="preserve"
       style="font-size:6px;font-style:normal;font-weight:normal;text-align:center;line-height:125%;letter-spacing:0px;word-spacing:0px;text-anchor:middle;fill:#000000;fill-opacity:1;stroke:none;font-family:Sans"
       x="390"
       y="377.36218"
       id="text3795"
       sodipodi:linespacing="125%"><tspan
         sodipodi:role="line"
         x="390"
         y="377.36218"
         id="tspan3799"
         style="font-size:12px">Phase 2</tspan></text>
    <text
       xml:space="preserve"
       style="font-size:6px;font-style:normal;font-weight:normal;text-align:center;line-height:125%;letter-spacing:0px;word-spacing:0px;text-anchor:middle;fill:#000000;fill-opacity:1;stroke:none;font-family:Sans"
       x="510"
       y="377.36218"
       id="text3801"
       sodipodi:linespacing="125%"><tspan
         sodipodi:role="line"
         id="tspan3803"
         x="510"
         y="377.36218"
         style="font-size:12px">Phase 3</tspan></text>
    <path
       style="fill:none;stroke:#000000;stroke-width:1;stroke-linecap:round;stroke-linejoin:round;stroke-miterlimit:4;stroke-opacity:1;stroke-dasharray:1, 4;stroke-dashoffset:0"
       d="m 330,337.36218 0,-140"
       id="path3805"
       inkscape:connector-curvature="0"
       sodipodi:nodetypes="cc" />
    <path
       style="fill:none;stroke:#000000;stroke-width:1;stroke-linecap:round;stroke-linejoin:round;stroke-miterlimit:4;stroke-opacity:1;stroke-dasharray:1, 4;stroke-dashoffset:0"
       d="m 450,337.36218 0,-140"
       id="path3807"
       inkscape:connector-curvature="0"
       sodipodi:nodetypes="cc" />
    <path
       style="fill:none;stroke:#000000;stroke-width:1px;stroke-linecap:butt;stroke-linejoin:miter;stroke-opacity:1;marker-end:url(#Arrow1Mend)"
       d="m -7.39167,147.5 0,-150.0000014"
       id="path3006"
       inkscape:connector-curvature="0"
       transform="translate(207.39167,194.86218)" />
    <path
       style="fill:none;stroke:#000000;stroke-width:1px;stroke-linecap:butt;stroke-linejoin:miter;stroke-opacity:1;marker-end:url(#Arrow1Mend)"
       d="m -12.39167,142.5 405,0"
       id="path3008"
       inkscape:connector-curvature="0"
       transform="translate(207.39167,194.86218)" />
    <text
       xml:space="preserve"
       style="font-size:6px;font-style:normal;font-weight:normal;text-align:end;line-height:125%;letter-spacing:0px;word-spacing:0px;text-anchor:end;fill:#000000;fill-opacity:1;stroke:none;font-family:Sans"
       x="195"
       y="207.36218"
       id="text4592"
       sodipodi:linespacing="125%"><tspan
         sodipodi:role="line"
         id="tspan4594"
         x="195"
         y="207.36218"
         style="font-size:12px;text-align:end;text-anchor:end">[m/s]</tspan></text>
    <text
       xml:space="preserve"
       style="font-size:6px;font-style:normal;font-weight:normal;text-align:center;line-height:125%;letter-spacing:0px;word-spacing:0px;text-anchor:middle;fill:#000000;fill-opacity:1;stroke:none;font-family:Sans"
       x="610"
       y="359.36218"
       id="text4596"
       sodipodi:linespacing="125%"><tspan
         sodipodi:role="line"
         id="tspan4598"
         x="610"
         y="359.36218"
         style="font-size:12px">[t]</tspan></text>
    <path
       sodipodi:nodetypes="ccc"
       inkscape:connector-curvature="0"
       id="path3186"
       d="m 210,342.36218 c -0.0444,22.10241 60,0 60,20 0,-20 59.95565,2.1024 60,-20"
       style="fill:none;stroke:#000000;stroke-width:1.39040911;stroke-linecap:square;stroke-linejoin:round;stroke-miterlimit:4;stroke-opacity:1;stroke-dasharray:none" />
    <path
       sodipodi:nodetypes="ccc"
       inkscape:connector-curvature="0"
       id="path3188"
       d="m 450,342.36218 c -0.0444,22.10241 60,0 60,20 0,-20 59.95565,2.1024 60,-20"
       style="fill:none;stroke:#000000;stroke-width:1.39040911;stroke-linecap:square;stroke-linejoin:round;stroke-miterlimit:4;stroke-opacity:1;stroke-dasharray:none" />
    <path
       style="fill:none;stroke:#000000;stroke-width:1.25;stroke-linecap:round;stroke-linejoin:round;stroke-miterlimit:4;stroke-opacity:1;stroke-dasharray:none;stroke-dashoffset:0"
       transform="translate(162.64844,188.44968)"
       d=" M 47.351559 148.9124975 C 53.0658447143 108.92963546 58.7801304286 85.3068867639 64.4944161429 68.3246958948 C 70.2087018571 51.3425050256 75.9229875714 41.3322018657 81.6372732857 34.1254212007 C 87.351559 26.9186405357 93.0658447143 22.6705396977 98.7801304286 19.6121776787 C 104.494416143 16.5538156597 110.208701857 14.7510370184 115.922987571 13.4531512253 C 121.637273286 12.1552654322 127.351559 11.39021513 133.065844714 10.8394276426 C 138.780130429 10.2886401552 144.494416143 9.96397358143 150.208701857 9.73023432805 C 155.922987571 9.49649507466 161.637273286 9.35871539684 167.351559 9.25952280473"
       title="-exp(-x)+1"
       id="path3219" />
    <path
       id="path3363"
       title="exp(-x)"
       d=" M 287.35156 8.9124975 C 293.065845714 48.8953595398 298.780131429 72.5181082361 304.494417143 89.5002991052 C 310.208702857 106.482489974 315.922988571 116.492793134 321.637274286 123.699573799 C 327.35156 130.906354464 333.065845714 135.154455302 338.780131429 138.212817321 C 344.494417143 141.27117934 350.208702857 143.073957982 355.922988571 144.371843775 C 361.637274286 145.669729568 367.35156 146.43477987 373.065845714 146.985567357 C 378.780131429 147.536354845 384.494417143 147.861021419 390.208702857 148.094760672 C 395.922988571 148.328499925 401.637274286 148.466279603 407.35156 148.565472195"
       transform="translate(162.64844,188.44968)"
       style="fill:none;stroke:#000000;stroke-width:1.25;stroke-linecap:round;stroke-linejoin:round;stroke-miterlimit:4;stroke-opacity:1;stroke-dasharray:none;stroke-dashoffset:0" />
    <path
       style="fill:none;stroke:#000000;stroke-width:1.25;stroke-linecap:round;stroke-linejoin:round;stroke-miterlimit:4;stroke-opacity:1;stroke-dasharray:none"
       d="m 167.35156,9.2696408 120,-0.3571428"
       id="path3392"
       inkscape:connector-curvature="0"
       transform="translate(162.64844,188.44968)"
       sodipodi:nodetypes="cc" />
  </g>
</svg>

<?xml version="1.0" encoding="UTF-8" standalone="no"?>
<!-- Created with Inkscape (http://www.inkscape.org/) -->

<svg
   xmlns:dc="http://purl.org/dc/elements/1.1/"
   xmlns:cc="http://creativecommons.org/ns#"
   xmlns:rdf="http://www.w3.org/1999/02/22-rdf-syntax-ns#"
   xmlns:svg="http://www.w3.org/2000/svg"
   xmlns="http://www.w3.org/2000/svg"
   xmlns:sodipodi="http://sodipodi.sourceforge.net/DTD/sodipodi-0.dtd"
   xmlns:inkscape="http://www.inkscape.org/namespaces/inkscape"
   sodipodi:docname="acceldecel.svg"
   inkscape:version="0.48.4 r9939"
   version="1.1"
   id="svg2"
   height="190.41992"
   width="436.61133">
  <sodipodi:namedview
     id="base"
     pagecolor="#ffffff"
     bordercolor="#666666"
     borderopacity="1.0"
     inkscape:pageopacity="0.0"
     inkscape:pageshadow="2"
     inkscape:zoom="3.959798"
     inkscape:cx="142.03416"
     inkscape:cy="35.557274"
     inkscape:document-units="px"
     inkscape:current-layer="layer1"
     showgrid="true"
     fit-margin-left="2"
     fit-margin-top="2"
     fit-margin-right="2"
     fit-margin-bottom="2"
     inkscape:window-width="1276"
     inkscape:window-height="985"
     inkscape:window-x="1440"
     inkscape:window-y="18"
     inkscape:window-maximized="0">
    <inkscape:grid
       type="xygrid"
       id="grid2985"
       empspacing="5"
       visible="true"
       enabled="true"
       snapvisiblegridlinesonly="true"
       originx="-178.88281px"
       originy="-672.83007px" />
  </sodipodi:namedview>
  <defs
     id="defs4">
    <marker
       inkscape:stockid="Arrow1Mend"
       orient="auto"
       refY="0"
       refX="0"
       id="Arrow1Mend"
       style="overflow:visible">
      <path
         id="path3791"
         d="M 0,0 5,-5 -12.5,0 5,5 0,0 z"
         style="fill-rule:evenodd;stroke:#000000;stroke-width:1pt"
         transform="matrix(-0.4,0,0,-0.4,-4,0)"
         inkscape:connector-curvature="0" />
    </marker>
    <marker
       inkscape:stockid="Arrow1Lend"
       orient="auto"
       refY="0"
       refX="0"
       id="Arrow1Lend"
       style="overflow:visible">
      <path
         id="path3785"
         d="M 0,0 5,-5 -12.5,0 5,5 0,0 z"
         style="fill-rule:evenodd;stroke:#000000;stroke-width:1pt"
         transform="matrix(-0.8,0,0,-0.8,-10,0)"
         inkscape:connector-curvature="0" />
    </marker>
  </defs>
  <metadata
     id="metadata7">
    <rdf:RDF>
      <cc:Work
         rdf:about="">
        <dc:format>image/svg+xml</dc:format>
        <dc:type
           rdf:resource="http://purl.org/dc/dcmitype/StillImage" />
        <dc:title />
      </cc:Work>
    </rdf:RDF>
  </metadata>
  <g
     inkscape:label="Layer 1"
     inkscape:groupmode="layer"
     id="layer1"
     transform="translate(-178.88281,-189.11218)">
    <path
       style="fill:none;stroke:#000000;stroke-width:1.39040911;stroke-linecap:square;stroke-linejoin:round;stroke-miterlimit:4;stroke-opacity:1;stroke-dasharray:none"
       d="m 330,342.36218 c 0,15 60,-5 60,20 0,-25 60,-5 60,-19.73039"
       id="path3831-6-1"
       inkscape:connector-curvature="0"
       sodipodi:nodetypes="ccc" />
    <text
       xml:space="preserve"
       style="font-size:6px;font-style:normal;font-weight:normal;text-align:center;line-height:125%;letter-spacing:0px;word-spacing:0px;text-anchor:middle;fill:#000000;fill-opacity:1;stroke:none;font-family:Sans"
       x="270"
       y="377.36218"
       id="text3791"
       sodipodi:linespacing="125%"><tspan
         sodipodi:role="line"
         id="tspan3793"
         x="270"
         y="377.36218"
         style="font-size:12px">Phase 1</tspan></text>
    <text
       xml:space="preserve"
       style="font-size:6px;font-style:normal;font-weight:normal;text-align:center;line-height:125%;letter-spacing:0px;word-spacing:0px;text-anchor:middle;fill:#000000;fill-opacity:1;stroke:none;font-family:Sans"
       x="390"
       y="377.36218"
       id="text3795"
       sodipodi:linespacing="125%"><tspan
         sodipodi:role="line"
         x="390"
         y="377.36218"
         id="tspan3799"
         style="font-size:12px">Phase 2</tspan></text>
    <text
       xml:space="preserve"
       style="font-size:6px;font-style:normal;font-weight:normal;text-align:center;line-height:125%;letter-spacing:0px;word-spacing:0px;text-anchor:middle;fill:#000000;fill-opacity:1;stroke:none;font-family:Sans"
       x="510"
       y="377.36218"
       id="text3801"
       sodipodi:linespacing="125%"><tspan
         sodipodi:role="line"
         id="tspan3803"
         x="510"
         y="377.36218"
         style="font-size:12px">Phase 3</tspan></text>
    <path
       style="fill:none;stroke:#000000;stroke-width:1;stroke-linecap:round;stroke-linejoin:round;stroke-miterlimit:4;stroke-opacity:1;stroke-dasharray:1, 4;stroke-dashoffset:0"
       d="m 330,337.36218 0,-140"
       id="path3805"
       inkscape:connector-curvature="0"
       sodipodi:nodetypes="cc" />
    <path
       style="fill:none;stroke:#000000;stroke-width:1;stroke-linecap:round;stroke-linejoin:round;stroke-miterlimit:4;stroke-opacity:1;stroke-dasharray:1, 4;stroke-dashoffset:0"
       d="m 450,337.36218 0,-140"
       id="path3807"
       inkscape:connector-curvature="0"
       sodipodi:nodetypes="cc" />
    <path
       style="fill:none;stroke:#000000;stroke-width:1px;stroke-linecap:butt;stroke-linejoin:miter;stroke-opacity:1;marker-end:url(#Arrow1Mend)"
       d="m -7.39167,147.5 0,-150.0000014"
       id="path3006"
       inkscape:connector-curvature="0"
       transform="translate(207.39167,194.86218)" />
    <path
       style="fill:none;stroke:#000000;stroke-width:1px;stroke-linecap:butt;stroke-linejoin:miter;stroke-opacity:1;marker-end:url(#Arrow1Mend)"
       d="m -12.39167,142.5 405,0"
       id="path3008"
       inkscape:connector-curvature="0"
       transform="translate(207.39167,194.86218)" />
    <text
       xml:space="preserve"
       style="font-size:6px;font-style:normal;font-weight:normal;text-align:end;line-height:125%;letter-spacing:0px;word-spacing:0px;text-anchor:end;fill:#000000;fill-opacity:1;stroke:none;font-family:Sans"
       x="-197.36218"
       y="190"
       id="text4592"
       sodipodi:linespacing="125%"
       transform="matrix(0,-1,1,0,0,0)"><tspan
         sodipodi:role="line"
         id="tspan4594"
         x="-197.36218"
         y="190"
         style="font-size:12px;text-align:end;text-anchor:end">\tiny{Velocity}</tspan></text>
    <text
       xml:space="preserve"
       style="font-size:6px;font-style:normal;font-weight:normal;text-align:center;line-height:125%;letter-spacing:0px;word-spacing:0px;text-anchor:middle;fill:#000000;fill-opacity:1;stroke:none;font-family:Sans"
       x="615"
       y="332.36218"
       id="text4596"
       sodipodi:linespacing="125%"><tspan
         sodipodi:role="line"
         id="tspan4598"
         x="615"
         y="332.36218"
         style="font-size:12px;text-align:end;text-anchor:end">\tiny{Time}</tspan></text>
    <path
       sodipodi:nodetypes="ccc"
       inkscape:connector-curvature="0"
       id="path3186"
       d="m 210,342.36218 c 0,15 60,-5 60,20 0,-25 60,-5 60,-20"
       style="fill:none;stroke:#000000;stroke-width:1.39040911;stroke-linecap:square;stroke-linejoin:round;stroke-miterlimit:4;stroke-opacity:1;stroke-dasharray:none" />
    <path
       sodipodi:nodetypes="ccc"
       inkscape:connector-curvature="0"
       id="path3188"
       d="m 450,342.36218 c 0,15 60,-5 60,20 0,-25 60,-5 60,-20"
       style="fill:none;stroke:#000000;stroke-width:1.39040911;stroke-linecap:square;stroke-linejoin:round;stroke-miterlimit:4;stroke-opacity:1;stroke-dasharray:none" />
    <path
       style="fill:none;stroke:#000000;stroke-width:1.25;stroke-linecap:round;stroke-linejoin:round;stroke-miterlimit:4;stroke-opacity:1;stroke-dasharray:none;stroke-dashoffset:0"
       transform="translate(162.64844,188.44968)"
       d="M 47.351559,148.9125 C 53.065845,108.92964 58.78013,85.306887 64.494416,68.324696 70.208702,51.342505 75.922988,41.332202 81.637273,34.125421 87.351559,26.918641 93.065845,22.67054 98.78013,19.612178 c 5.71429,-3.058362 11.42857,-4.861141 17.14286,-6.159027 5.71428,-1.297886 11.42857,-2.062936 17.14285,-2.613723 5.71429,-0.550788 11.42858,-0.8754544 17.14286,-1.1091937 5.71429,-0.2337392 11.42857,-0.3715189 17.14286,-0.4707115"
       title="-exp(-x)+1"
       id="path3219"
       inkscape:connector-curvature="0" />
    <path
       id="path3363"
       title="exp(-x)"
       d="m 287.35156,8.9124975 c 5.71429,39.9828625 11.42857,63.6056105 17.14286,80.5878015 5.71428,16.982191 11.42857,26.992491 17.14285,34.199271 5.71429,7.20678 11.42858,11.45489 17.14286,14.51325 5.71429,3.05836 11.42857,4.86114 17.14286,6.15902 5.71428,1.29789 11.42857,2.06294 17.14286,2.61373 5.71428,0.55078 11.42857,0.87545 17.14285,1.10919 5.71429,0.23374 11.42857,0.37152 17.14286,0.47071"
       transform="translate(162.64844,188.44968)"
       style="fill:none;stroke:#000000;stroke-width:1.25;stroke-linecap:round;stroke-linejoin:round;stroke-miterlimit:4;stroke-opacity:1;stroke-dasharray:none;stroke-dashoffset:0"
       inkscape:connector-curvature="0" />
    <path
       style="fill:none;stroke:#000000;stroke-width:1.25;stroke-linecap:round;stroke-linejoin:round;stroke-miterlimit:4;stroke-opacity:1;stroke-dasharray:none"
       d="m 167.35156,9.2696408 120,-0.3571428"
       id="path3392"
       inkscape:connector-curvature="0"
       transform="translate(162.64844,188.44968)"
       sodipodi:nodetypes="cc" />
  </g>
</svg>
